Origami/16x16/apps/wesnoth.svg

<svg width="16" height="16" version="1" xmlns="http://www.w3.org/2000/svg">
 <path d="m14.845303 1.9999965-6.7687171-1.9870652c-0.049718-0.01724174-0.1039635-0.01724174-0.1536811 0l-6.768717 1.9870652c-0.092366 0.031988-0.15418938 0.4745562-0.15418938 0.570747 0 2.3720097 0.63921378 5.1139908 1.753795 7.5228435 0.9040666 1.95417 2.5298247 4.560894 5.1404175 5.881248 0.033222 0.01679 0.069494 0.02518 0.1058117 0.02518 0.036318 0 0.07259-0.0084 0.1058117-0.02518 2.6104547-1.320626 4.2361657-3.927305 5.1404177-5.881248 1.114535-2.4090342 1.753749-5.1511968 1.753749-7.5228435 0-0.096191-0.06182-0.538759-0.15419-0.570747z" style="fill:#4f4f4f"/>
 <path d="m11.911445 4.3256892-3.867775-1.3184154c-0.02841-0.0097-0.059407-0.0097-0.087816 0l-3.8677759 1.3184154c-0.05278 0.017993-0.088107 0.06623-0.088107 0.1203363 0 1.3342391 0.3652591 2.8765846 1.0021523 4.2315476 0.5166011 1.099207 1.4455906 2.5654719 2.9373337 3.3081619 0.018984 0.0094 0.03971 0.01416 0.060463 0.01416s0.041479-0.0047 0.060463-0.01416c1.4916639-0.742844 2.4206269-2.2090825 2.9373339-3.3081619 0.636867-1.3550651 1.002126-2.8975127 1.002126-4.2315476 0-0.054107-0.03533-0.1023432-0.08811-0.1203363z" style="fill:#ffb706"/>
 <path d="M 4.9501975,4.234433 6.2631244,3.4764141 12.327275,13.979832 12.618336,16 11.014348,14.73785 Z" style="fill:#ffffff"/>
 <path d="m3.998617 0.00284104c-0.0474383 0.00594362-0.0942896 0.02189348-0.1384275 0.04737618l-0.6758508 0.38937295c-0.1765505 0.10193148-0.2366573 0.32608114-0.1347261 0.50263165l1.1429503 1.9786957-0.9948997 0.5744361c-0.1765506 0.1019316-0.2366573 0.3260812-0.1347257 0.5026317l0.3901128 0.6758508c0.1019316 0.1765505 0.3260812 0.2366576 0.5026317 0.1347261l3.3015277-1.906151c0.1765505-0.1019315 0.2366573-0.3260811 0.1347261-0.5026316l-0.3901133-0.6758508c-0.1019315-0.1765505-0.3260811-0.2366575-0.5026317-0.134726l-0.9941595 0.5736959-1.1422101-1.9786957c-0.0764485-0.13241289-0.2218896-0.1991931-0.3642042-0.18136192z" style="fill:#3f3f3f"/>
 <path d="M 11.068138,4.234433 9.7552107,3.4764141 3.6910598,13.979832 3.3999995,16 5.0039867,14.73785 Z" style="fill:#ffffff"/>
 <path d="m12.019718 0.00284104c0.04744 0.00594362 0.09429 0.02189348 0.138428 0.04737618l0.67585 0.38937295c0.176551 0.10193148 0.236658 0.32608114 0.134726 0.50263165l-1.14295 1.9786957 0.9949 0.5744361c0.17655 0.1019316 0.236657 0.3260812 0.134726 0.5026317l-0.390113 0.6758508c-0.101932 0.1765505-0.326081 0.2366576-0.502632 0.1347261l-3.3015276-1.906151c-0.1765505-0.1019315-0.2366573-0.3260811-0.1347261-0.5026316l0.3901133-0.6758508c0.1019315-0.1765505 0.3260811-0.2366575 0.5026317-0.134726l0.9941597 0.5736959 1.14221-1.9786957c0.07645-0.13241289 0.221889-0.1991931 0.364204-0.18136192z" style="fill:#3f3f3f"/>
</svg>

<svg xmlns="http://www.w3.org/2000/svg" width="16" height="16" version="1">
 <path style="fill:#4f4f4f" d="M 14.845303,1.9999965 8.0765859,0.01293135 c -0.049718,-0.01724174 -0.1039635,-0.01724174 -0.1536811,0 L 1.1541878,1.9999965 c -0.092366,0.031988 -0.15418938,0.4745562 -0.15418938,0.570747 0,2.3720097 0.63921378,5.1139908 1.75379498,7.5228435 0.9040666,1.95417 2.5298247,4.560894 5.1404175,5.881248 0.033222,0.01679 0.069494,0.02518 0.1058117,0.02518 0.036318,0 0.07259,-0.0084 0.1058117,-0.02518 2.6104547,-1.320626 4.2361657,-3.927305 5.1404177,-5.881248 1.114535,-2.4090342 1.753749,-5.1511968 1.753749,-7.5228435 0,-0.096191 -0.06182,-0.538759 -0.15419,-0.570747 z"/>
 <path style="fill:#ffb706" d="M 11.911445,4.3256892 8.04367,3.0072738 c -0.02841,-0.0097 -0.059407,-0.0097 -0.087816,0 L 4.0880781,4.3256892 c -0.05278,0.017993 -0.088107,0.06623 -0.088107,0.1203363 0,1.3342391 0.3652591,2.8765846 1.0021523,4.2315476 0.5166011,1.099207 1.4455906,2.5654719 2.9373337,3.3081619 0.018984,0.0094 0.03971,0.01416 0.060463,0.01416 0.020753,0 0.041479,-0.0047 0.060463,-0.01416 C 9.552047,11.242891 10.48101,9.7766525 10.997717,8.6775731 11.634584,7.322508 11.999843,5.7800604 11.999843,4.4460255 c 0,-0.054107 -0.03533,-0.1023432 -0.08811,-0.1203363 z"/>
 <path style="fill:#ffffff" d="M 4.9501975,4.234433 6.2631244,3.4764141 12.327275,13.979832 12.618336,16 11.014348,14.73785 Z"/>
 <path style="fill:#3f3f3f" d="M 3.998617,0.00284104 C 3.9511787,0.00878466 3.9043274,0.02473452 3.8601895,0.05021722 L 3.1843387,0.43959017 C 3.0077882,0.54152165 2.9476814,0.76567131 3.0496126,0.94222182 L 4.1925629,2.9209175 3.1976632,3.4953536 C 3.0211126,3.5972852 2.9610059,3.8214348 3.0629375,3.9979853 L 3.4530503,4.6738361 C 3.5549819,4.8503866 3.7791315,4.9104937 3.955682,4.8085622 L 7.2572097,2.9024112 C 7.4337602,2.8004797 7.493867,2.5763301 7.3919358,2.3997796 L 7.0018225,1.7239288 C 6.899891,1.5473783 6.6757414,1.4872713 6.4991908,1.5892028 L 5.5050313,2.1628987 4.3628212,0.18420296 C 4.2863727,0.05179007 4.1409316,-0.01499014 3.998617,0.00284104 Z"/>
 <path style="fill:#ffffff" d="M 11.068138,4.234433 9.7552107,3.4764141 3.6910598,13.979832 3.3999995,16 5.0039867,14.73785 Z"/>
 <path style="fill:#3f3f3f" d="m 12.019718,0.00284104 c 0.04744,0.00594362 0.09429,0.02189348 0.138428,0.04737618 l 0.67585,0.38937295 c 0.176551,0.10193148 0.236658,0.32608114 0.134726,0.50263165 l -1.14295,1.97869568 0.9949,0.5744361 c 0.17655,0.1019316 0.236657,0.3260812 0.134726,0.5026317 L 12.565285,4.6738361 C 12.463353,4.8503866 12.239204,4.9104937 12.062653,4.8085622 L 8.7611254,2.9024112 C 8.5845749,2.8004797 8.5244681,2.5763301 8.6263993,2.3997796 L 9.0165126,1.7239288 C 9.1184441,1.5473783 9.3425937,1.4872713 9.5191443,1.5892028 l 0.9941597,0.5736959 1.14221,-1.97869574 c 0.07645,-0.13241289 0.221889,-0.1991931 0.364204,-0.18136192 z"/>
</svg>
